packages/core/src/svgs/rai.svg

<svg width="24" height="24" viewBox="0 0 24 24" fill="none" xmlns="http://www.w3.org/2000/svg">
<g clip-path="url(#clip0_31_16787)">
<path d="M0 0H24V24H0V0Z" fill="url(#paint0_linear_31_16787)"/>
<path d="M6.51423 9.12835L6.04709 10.4698C5.96994 10.6841 5.98709 10.9241 6.08994 11.1255L7.9928 14.8455C8.04917 14.955 8.13316 15.0479 8.23646 15.115C8.33977 15.182 8.45879 15.2209 8.58176 15.2279C8.70473 15.2348 8.82738 15.2095 8.93756 15.1545C9.04774 15.0994 9.14163 15.0165 9.20994 14.9141L14.4385 7.01549C14.4985 6.92549 14.5414 6.82692 14.5671 6.71978L14.8885 5.14692C14.9199 5.01324 14.9103 4.87322 14.8612 4.745C14.8121 4.61678 14.7256 4.50627 14.6129 4.42778C14.5002 4.34928 14.3666 4.30642 14.2293 4.30474C14.092 4.30306 13.9574 4.34264 13.8428 4.41835L6.86137 8.69978C6.69852 8.80264 6.57852 8.95692 6.51423 9.13692V9.12835Z" fill="#68FEE2"/>
<path d="M8.45138 15.2145C8.68709 15.2702 8.94852 15.2059 9.13281 15.0173L14.7214 4.5259C14.5071 4.2859 14.1985 4.24732 13.8771 4.44018L6.86138 8.70018C6.77567 8.7559 6.70281 8.82018 6.64709 8.89732L8.45138 15.2188V15.2145Z" fill="#1FC9A8"/>
<path d="M12.0728 9.49288L11.4814 7.02002L11.0528 7.68431L11.67 10.2557L12.0728 9.49288ZM11.0957 11.3272L10.1614 7.65002L9.09424 8.05716L10.2214 12.9686L11.0957 11.3272Z" fill="#A5E9DC"/>
<path d="M6.69861 8.84987L13.26 7.23844L14.73 4.51273C14.6196 4.39201 14.4703 4.31388 14.3082 4.29195C14.1461 4.27002 13.9814 4.30569 13.8429 4.39273L6.87861 8.69987C6.81432 8.74273 6.75004 8.79416 6.69861 8.85416V8.84987Z" fill="#19898A"/>
<path d="M17.4857 14.8716L17.9529 13.5302C18.03 13.3159 18.0129 13.0759 17.91 12.8745L16.0072 9.1545C15.9508 9.04499 15.8668 8.95211 15.7635 8.88504C15.6602 8.81797 15.5412 8.77904 15.4182 8.77212C15.2952 8.76519 15.1726 8.7905 15.0624 8.84554C14.9522 8.90058 14.8583 8.98345 14.79 9.08593L9.55718 16.9845C9.49718 17.0745 9.45432 17.1731 9.4286 17.2802L9.10718 18.8531C9.07766 18.9895 9.08918 19.1316 9.14029 19.2615C9.1914 19.3914 9.2798 19.5033 9.39437 19.583C9.50894 19.6627 9.64454 19.7068 9.7841 19.7096C9.92365 19.7124 10.0609 19.6738 10.1786 19.5988L17.1343 15.3045C17.2972 15.2016 17.4172 15.0474 17.4815 14.8674L17.4857 14.8716Z" fill="#68FEE2"/>
<path d="M15.5486 8.7942C15.4281 8.76316 15.3015 8.76465 15.1818 8.79854C15.0621 8.83242 14.9535 8.89748 14.8671 8.98706L9.27856 19.4828C9.49285 19.7185 9.84856 19.7356 10.1657 19.5385L17.1386 15.3085C17.2243 15.2571 17.2971 15.1885 17.3529 15.1113L15.5486 8.7942Z" fill="#1FC9A8"/>
<path d="M17.3572 15.1069L10.7486 16.7269L9.27002 19.4741C9.48002 19.7141 9.84859 19.8041 10.2043 19.6069L17.1857 15.2784C17.2543 15.2355 17.3143 15.1755 17.3572 15.1069Z" fill="#19898A"/>
<path d="M16.2429 11.216L14.2715 10.106L13.9543 10.6974L16.5043 12.1288L16.2429 11.216ZM16.8386 13.2988L13.5129 11.5331L13.0543 12.3902C13.7615 12.7631 15.8829 13.946 17.2415 14.7088L16.8386 13.2988Z" fill="#A5E9DC"/>
<path d="M8.14284 7.28564C8.14284 7.91136 7.55998 8.1385 7.26855 8.17279C7.55998 8.15136 8.13855 8.28422 8.13855 8.99993C8.13855 8.33993 8.69998 8.17279 8.98284 8.17279C8.30998 8.17279 8.13855 7.58136 8.13855 7.28564H8.14284ZM11.1514 8.57136C11.1514 8.88422 10.86 8.99993 10.7143 9.01707C10.86 9.00422 11.1514 9.07279 11.1514 9.4285C11.1514 9.0985 11.43 9.01707 11.5714 9.01707C11.2328 9.01707 11.1514 8.71707 11.1514 8.57136ZM13.29 16.3928C13.29 16.6285 13.0757 16.7142 12.9643 16.7271C13.0714 16.7185 13.29 16.7699 13.29 17.0356C13.29 16.7871 13.5043 16.7271 13.6071 16.7271C13.3543 16.7271 13.29 16.5042 13.29 16.3928Z" fill="white"/>
</g>
<defs>
<linearGradient id="paint0_linear_31_16787" x1="4.46571" y1="4.16143" x2="29.2071" y2="32.58" gradientUnits="userSpaceOnUse">
<stop stop-color="#1A1E21"/>
<stop offset="1" stop-color="#06060A"/>
</linearGradient>
<clipPath id="clip0_31_16787">
<rect width="24" height="24" fill="white"/>
</clipPath>
</defs>
</svg>

<svg xmlns="http://www.w3.org/2000/svg" width="24" height="24" fill="none" viewBox="0 0 24 24"><g clip-path="url(#a)"><path fill="url(#b)" d="M0 0h24v24H0z"/><path fill="#68FEE2" d="m6.514 9.128-.467 1.342a.83.83 0 0 0 .043.656l1.903 3.72a.708.708 0 0 0 1.217.068l5.228-7.899a.9.9 0 0 0 .13-.295l.32-1.573a.686.686 0 0 0-1.045-.729L6.86 8.7a.85.85 0 0 0-.347.437z"/><path fill="#1FC9A8" d="M8.451 15.215a.72.72 0 0 0 .682-.198L14.72 4.526c-.214-.24-.523-.279-.844-.086L6.861 8.7a.8.8 0 0 0-.214.197l1.804 6.322z"/><path fill="#A5E9DC" d="M12.073 9.493 11.48 7.02l-.428.664.617 2.572zm-.977 1.834L10.16 7.65l-1.067.407 1.127 4.912z"/><path fill="#19898A" d="m6.699 8.85 6.561-1.612 1.47-2.725a.7.7 0 0 0-.887-.12L6.879 8.7a1 1 0 0 0-.18.154z"/><path fill="#68FEE2" d="m17.486 14.872.467-1.342a.83.83 0 0 0-.043-.655l-1.903-3.72a.707.707 0 0 0-1.217-.07l-5.233 7.9a.9.9 0 0 0-.128.295l-.322 1.573a.707.707 0 0 0 1.072.746l6.955-4.294a.85.85 0 0 0 .348-.438z"/><path fill="#1FC9A8" d="M15.549 8.794a.7.7 0 0 0-.682.193L9.28 19.483c.214.235.57.253.887.055l6.973-4.23a.7.7 0 0 0 .214-.197z"/><path fill="#19898A" d="m17.357 15.107-6.608 1.62-1.479 2.747c.21.24.579.33.934.133l6.982-4.329a.55.55 0 0 0 .171-.171"/><path fill="#A5E9DC" d="m16.243 11.216-1.971-1.11-.318.591 2.55 1.432zm.596 2.083-3.326-1.766-.459.857a295 295 0 0 1 4.187 2.319z"/><path fill="#fff" d="M8.143 7.286c0 .625-.583.853-.874.887.291-.022.87.111.87.827 0-.66.561-.827.844-.827-.673 0-.844-.592-.844-.887zM11.15 8.57c0 .313-.291.429-.437.446.146-.013.437.056.437.412 0-.33.279-.412.42-.412-.338 0-.42-.3-.42-.446m2.139 7.822c0 .235-.214.321-.326.334.107-.009.326.043.326.309 0-.249.214-.309.317-.309-.253 0-.317-.223-.317-.334"/></g><defs><linearGradient id="b" x1="4.466" x2="29.207" y1="4.161" y2="32.58" gradientUnits="userSpaceOnUse"><stop stop-color="#1A1E21"/><stop offset="1" stop-color="#06060A"/></linearGradient><clipPath id="a"><path fill="#fff" d="M0 0h24v24H0z"/></clipPath></defs></svg>
